X:368
T: Pipe Gavot
N: O'Farrell's Pocket Companion v.4 (Sky ed. p.159)
M: C
L: 1/8
Q: 270
R: hornpipe
K: D
A| d2fd A2^A2| B2 dA F2A2| Bdce dfeg| faBe dcBA|
d2fd A2^A2| B2 dA F2A2| Bdce dfeg| face d3 :|
z| fdcB ecBA| dfba ^gfed| c2A2 ^G2B2| A2c2B2a2|
^gbgc' B2d2| ceAc dfBd| cBA^G A3B| =c2A2B2d2|
dcBA B2G2| A2F2G2B2| BAGF A2F2| G2E2F2 dA|
B2ge dfaf| gfed dcBA |d2fd A2^A2| B2 dA F2A2|
Bdce dfeg| faBe dcBA| d2fd A2^A2| B2 dA F2A2|
Bdce dfeg| face d4- |d4z4||
